24x24/apps/appimagekit-unityhub.svg

<svg xmlns="http://www.w3.org/2000/svg" width="24" height="24" version="1.1">
 <rect style="opacity:0.2" width="20" height="20" x="2" y="2.5" rx="1" ry="1"/>
 <rect style="fill:#f4f4f7" width="20" height="20" x="2" y="2" rx="1" ry="1"/>
 <path style="opacity:0.2" d="M 17.105,4.9332 10.959,6.5797 10.139,7.9996 H 8.5 L 4,12.5 8.5,17 H 10.139 L 10.959,18.42 17.105,20.066 18.754,13.92 17.934,12.5 18.754,11.08 Z M 14.49,7.4644 12.16,11.5 H 7.5 L 10.453,8.5465 Z M 16.223,8.4644 17.305,12.5 16.223,16.535 13.893,12.5 Z M 7.5,13.5 H 12.16 L 14.49,17.535 10.453,16.453 Z"/>
 <path style="fill:#303030" d="M 17.105469,4.4335938 10.958984,6.0800781 10.138672,7.5 H 8.5 L 4,12 8.5,16.5 h 1.638672 l 0.820312,1.419922 6.146485,1.646484 1.648437,-6.146484 L 17.933594,12 18.753906,10.580078 Z M 14.490234,6.9648438 12.160156,11 H 7.5 l 2.953125,-2.953125 z m 1.732422,1 L 17.304688,12 16.222656,16.035156 13.892578,12 Z M 7.5,13 h 4.660156 l 2.330078,4.035156 -4.037109,-1.082031 z"/>
 <path style="fill:#f4f4f7;opacity:0.2" d="M 3 2 C 2.446 2 2 2.446 2 3 L 2 3.5 C 2 2.946 2.446 2.5 3 2.5 L 21 2.5 C 21.554 2.5 22 2.946 22 3.5 L 22 3 C 22 2.446 21.554 2 21 2 L 3 2 z"/>
</svg>

<svg xmlns="http://www.w3.org/2000/svg" width="24" height="24"><rect style="opacity:.2" width="20" height="20" x="2" y="2.5" rx="1" ry="1"/><rect style="fill:#f4f4f7" width="20" height="20" x="2" y="2" rx="1" ry="1"/><path style="opacity:.2" d="M17.105 4.933 10.959 6.58 10.139 8H8.5L4 12.5 8.5 17h1.639l.82 1.42 6.146 1.646 1.649-6.146-.82-1.42.82-1.42zM14.49 7.464 12.16 11.5H7.5l2.953-2.954zm1.733 1 1.082 4.036-1.082 4.035-2.33-4.035zM7.5 13.5h4.66l2.33 4.035-4.037-1.082z"/><path style="fill:#303030" d="M17.105 4.434 10.96 6.08l-.82 1.42H8.5L4 12l4.5 4.5h1.639l.82 1.42 6.146 1.646 1.649-6.146-.82-1.42.82-1.42zm-2.615 2.53L12.16 11H7.5l2.953-2.953zm1.733 1L17.305 12l-1.082 4.035L13.893 12zM7.5 13h4.66l2.33 4.035-4.037-1.082z"/><path style="fill:#f4f4f7;opacity:.2" d="M3 2c-.554 0-1 .446-1 1v.5c0-.554.446-1 1-1h18c.554 0 1 .446 1 1V3c0-.554-.446-1-1-1H3z"/></svg>
